X:211
T:I'll Fly Away
C:Mike Compton solo
N:From the "O Brother Where Art Thou" CD Transcribed by Mike Stangeland
R:bluegrass
L:1/8
Q:1/4=210
M:4/4
K:D
z2 A,2 B,2 D2 | "D"[AF][AF] [AF][AF] [A2D2] [AD][AD] | [DA,][DA,] [DA,][DA,] A,B, [A2D2] | 
[A=FC][A^FD] [AFD][AFD] [AFD][AFD] [A2F2D2] | [A=FC][A^FD] [AFD]D [A2E2] [A2D2] | 
"G"[DB,][DB,] [DB,]D [A=F][AF] [AF][AF] | [A=F][AF] [AF][AE] D2 B,2 | "D"A,[AD] [DA,][AD] A,[AD] [DA,][AD] | 
A,[AD] [DA,][AD] [D2B,2] [A2D2] | [AF][AF] [AF][AE] [A2D2] [A2D2B,2] | [D2A,2] [D2B,2] [A2D2] [A2E2] | 
[A2F2] [A2=F2] [A2^F2] A2 | [AE][AF] [AF][AE] [A2D2] F2 | [AFD][AFD] [AFD][AFD] [AFD][AFD] [AFD][FD] | 
"G"[=FD][FD] [FD][FD] [AE][AE] [AE][D=C] | "D"[DD][DD] [DD][DD] DF AB | "second break"d2 F2 A2 d2 | 
[fd][fd] [fd][fd] [fd][fd] =cA | F2 dA =c2 d2 | [fA][fA] [fA][fA] [fA][fA] [fA][fA] | 
[fA]a ^ga fd =cA | "G"Bd d2 [f2d2] [a2=f2] | [a=f][af] [af][af] [af][ae] dB | 
"D"[f2d2] [fd][fd] [fd][fd] [fd][fd] | dA F2 E2 D2 | [AE][AF] [AF][AF] [AF][AF] [AF][AE] | 
[A2D2] [D2B,2] [D2A,2] [D2B,2] | [A2D2] [D2B,2] A,B, A,2 | [AE][AF] [AF][AF] [AF][AF] [A2F2] | 
[AF][AF] [A2F2] FE DB, | "G"A,B, DE =FD ED | "D"{=C}D2 [AD][AD] BA cA | d8 | 


